X:291
T:Allegretto. JaW.291
M:2/4
L:1/8
Q:1/2=50
S:James Winder Ms, Lancashire, 1835-41
R:.Air
O:England
A:Wyresdale,Lancashire
Z:vmp.Chris Partington, Aug 2004
K:C
cd|ee gg|dd gg|egce|ddd (c/d/)|ee gg|ff c’a|ge fd|c2z:|!
|:e|.d.g .e.g|fg eg|.d.g .e.g|dgg G|cc ee|AA af|eg dg|c2z:|!
|:”Minore”e|(ec) (dB)|(cA) (B^G)|Aeee|a3g|.f.A(fe)|cd Bc|A2z:|

